static/img/general/ic-angle_up.svg

<svg width="12" height="10" viewBox="0 0 12 10" fill="none" xmlns="http://www.w3.org/2000/svg">
<path d="M5.40594 1.26242L0.246289 7.61249C-0.0820971 8.01643 -0.0820971 8.67135 0.246289 9.0751C0.574382 9.47887 1.10652 9.47887 1.43458 9.0751L6.00009 3.45626L10.5654 9.07493C10.8937 9.47871 11.4257 9.47871 11.7538 9.07493C12.0821 8.67116 12.0821 8.01627 11.7538 7.61233L6.5941 1.26225C6.42997 1.06036 6.2151 0.959535 6.00011 0.959535C5.78502 0.959535 5.56998 1.06056 5.40594 1.26242Z" fill="#030405"/>
</svg>

<svg width="12" height="10" viewBox="0 0 12 10" fill="none" xmlns="http://www.w3.org/2000/svg"><path d="M5.406 1.262l-5.16 6.35c-.328.404-.328 1.06 0 1.463.328.404.86.404 1.189 0L6 3.456l4.565 5.619c.329.404.86.404 1.189 0 .328-.404.328-1.059 0-1.463l-5.16-6.35A.766.766 0 0 0 6 .96a.767.767 0 0 0-.594.302z" fill="#030405"/></svg>
